!!!OTL: MORGEN MUSS ICH FORT VON HIER
!!!ARE: Europa, Mitteleuropa, Deutschland
!!!SCT: E0791A
!!!YEM: Copyright 1995, estate of Helmut Schaffrath.
**kern
*ICvox
*Ivox
*M3/4
*k[b-]
*F:
=1
{4.cc
8a
8dd
8cc
=2
8.cc
16b-
4a
4r}
=3
{8g
8a
8b-
8dd
8cc
8b-
=4
4b-
4a
4r}
=5
{4.cc
8a
8dd
8cc
=6
8.cc
16b-
4a
4r}
=7
{8g
8cc
8ee
8dd
8cc
8bn
=8
4dd
4cc
4r}
=9
{4.b-
8a
8g
8f
=10
8.e
16f
4g
4r}
=11
{4.dd
8cc
8b-
8a
=12
8.g
16a
4g
4r}
=13
{4.cc
8a
8b-
8cc
=14
8dd
8ee
8gg
8ff
8ee
8dd}
=15
{4.cc
16b-
16a
8b-
8g
=16
4g
4a
4r}
==
!!!AGN: Abschieds - Lied, Liebe
!!!ONB: ESAC (Essen Associative Code) Database: ERK2
!!!AMT: simple triple
!!!AIN: vox
!!!EED: Helmut Schaffrath
!!!EEV: 1.0
*-
